let harpmelody = slow 2 $ stack [midinote "[74 72]*4" # s "gtr",midinote "[62 60]*4" # s "gtr",slow 2 $ fastcat [midinote "70 69" # s "gtr",midinote "67" # s "gtr",midinote "70 69" # s "gtr",midinote "66" # s "gtr"]]

d1 $ stack [
  sound "[bd hh]*4" #gain 0.9
  ,harpmelody #gain 0.75 #pan 0.65
  ,loopAt 8 $ sound "Voc2" # room 0.65 # sz 0.8 # orbit 1 #gain 0.9
]

hush
















--------------BBF------------------
----------HTWK - Computermusik-----
























------BBF.hs-----
---PART1---
d1 $ stack [
--Drums1
sound "[bd hh]*4" #gain 0.4
--Marimba1&2
,stack [
  slow 2 $ midinote "[~ [51 49] 51 51][~ [51 46] 51 51][~ [51 49] 51 51][~ 51 ~ 51]" # s "glasstap"
  -- ,slow 2 $ midinote "[~[~~~60]~~][]" # s "can" # speed (1 + (irand 10)*0.2)
]
--Tuba1
,sound "[~ cp ~ ~]" #pan 0.2
--Posaune1
-- ,sound "[][[][~ cp]]" #pan 0.8
]


















---PART2,3,4---
d1 $ stack [
  --Drums2,3,4
  --f2
  slow 8 $ fastcat [sound "[[bd hh]*4]",sound "[[bd hh]*4]",stack [ sound "[bd ~]*4", sound "[~ hh ~ hh][~ [hh hh] hh hh]" ],sound "[[bd hh]*4]",sound "[[bd hh]*4]",sound "[[bd hh]*4]",stack [ sound "[bd ~]*4", sound "[~ hh ~ hh][~ [hh hh] hh hh]" ],stack [ sound "[bd ~]*4", sound "[~ hh ~ hh][~ [hh hh] [hh hh] hh]" ]]
  --f3
  -- slow 2 $ sound "[bd hh bd hh][bd [hh ho] bd hh] [bd hh bd hh][bd [hh hh] bd hh]"
  --f4
  -- slow 2 $ stack [sound "[bd hh]*8" #gain 1.0,fastcat[sound "[rm rm rm rm rm]", sound "[rm rm rm rm ~]"] #gain 0.9]
  --Marimba2
  ,stack [slow 2 $ midinote "[~ [51 49] 51 51][~ [51 46] 51 51][~ [51 49] 51 51][~ 51 ~ 51]" # s "glasstap",slow 2 $ midinote "[~[~~~60]~~][]" # s "can" # speed (1 + (irand 10)*0.2)]
  --Tuba1
  ,sound "[~ cp ~ ~]" #pan 0.2
  --Posaune1
  ,sound "[][[][~ cp]]" #pan 0.8
  --MOOG1,2
  ,slow 8 $ fastcat [midinote "[[55 55][54 55 ~ ~]]*2" # s "moog" # cut 1, midinote "[[50 50][49 50 ~ ~]]*2" # s "moog" # cut 1, midinote "[[48 48][47 48 ~ ~]]*2" # s "moog" # cut 1, midinote "[[58 57][56 57 ~ ~]]  [[57 ~][56 57 ~ ~]]" # s "moog" # cut 1] #gain 1.0
  --2
  -- ,midinote "[[[[50 ~ ~ 50]][~ 50]][55 57 60 58]]" # s "moog" # cut 1
  --Piano1+2
  -- ,slow 8 $ stack[midinote "43 " #s "superpiano", midinote "55 " #s "superpiano"]
  --2
  -- ,slow 8 $ stack[midinote "[[[][[][][][67]][][]][]]  []  [[[][[][][][67]][][]][]]  []" #s "superpiano" ,midinote "[[[][[][][][62]][][]][]]  []  [[[][[][][][62]][][]][]]  []" #s "superpiano"] # room 0.5 # sz 0.83 # orbit 1 #gain 0.9
]






---PART5---

d1 $ stack [
  --Marimba3,2
  midinote "[~ 49 51 49]*4" # s "glasstap" #gain 1.3
  --2
  -- stack [slow 2 $ midinote "[~ [51 49] 51 51][~ [51 46] 51 51][~ [51 49] 51 51][~ 51 ~ 51]" # s "glasstap",slow 2 $ midinote "[~[~~~60]~~][]" # s "can" # speed (1 + (irand 10)*0.2)]
  --harp
  ,slow 2 $ stack [midinote "[74 72]*4" # s "gtr",midinote "[62 60]*4" # s "gtr",slow 2 $ fastcat [midinote "70 69" # s "gtr",midinote "67" # s "gtr",midinote "70 69" # s "gtr",midinote "66" # s "gtr"]] #gain 0.75 #pan 0.65 #gain 0.8
  --Piano3,4
  -- ,slow 2 $ midinote "[86 ~][86][~] [~] " # s "superpiano" # room 0.5 # sz 0.83 # orbit 1 #gain "<0.65 0.7 0.75 0.8>"
  --4
  ,slow 8 $ fastcat [midinote "~ 67 69 74 ~ 67 69 74 ~ 67 69 74 ~ 67 69 74 ~ 67 69 74 ~ 67 69 74 ~ 67 69 74  ~ ~ 67 ~ " # s "superpiano",midinote "~ 67 68 69 ~ 67 68 69 ~ 67 68 69 ~ 67 68 69 ~ 67 68 69 ~ 67 68 69 ~ 67 68 69  ~ ~ 67 ~ " # s "superpiano",midinote "~ 66 67 72 ~ 66 67 72 ~ 66 67 72 ~ 66 67 72 ~ 66 67 72 ~ 66 67 72 ~ 66 67 72  ~ ~ 67 ~ " # s "superpiano",midinote "~ 66 67 70 ~ 66 67 70 ~ 66 67 70 ~ 66 67 70 ~ 66 67 70 ~ 66 67 70 ~ 66 67 70  ~ ~ 66 ~ " # s "superpiano"] #gain 1.0 #pan 0.35
  --Viola
  ,slow 16 $ fastcat [midinote "[58][][][][][][][51][50][58][][][][][][]" # s "Vibrato:26",midinote "[58][][][][][][][51][50][58][][][][][][]" # s "Vibrato:26",midinote "[58][][][][][][][51][50][62][][][][][63][62]" # s "Vibrato:26",midinote "[][66][][][][][67][66][][69][][][][][][]" # s "Vibrato:26"] #cut 1 # room 0.85 # sz 0.8 # orbit 1 #gain 0.7
  --Drums
  ,slow 2 $ fastcat[sound "[rm rm rm rm rm]", sound "[rm rm rm rm ~]"] #gain 1.1
]








---PART6---
d1 $ stack[
  --Drums6
  slow 2 $ stack [  sound "[bd hh]*8" #gain 1.2, fastcat[sound "[rm rm rm rm rm]", sound "[rm rm rm rm ~]"] #gain 1.0 ]
  --Marimba2
  ,stack [slow 2 $ midinote "[~ [51 49] 51 51][~ [51 46] 51 51][~ [51 49] 51 51][~ 51 ~ 51]" # s "glasstap",slow 2 $ midinote "[~[~~~60]~~][]" # s "can" # speed (1 + (irand 10)*0.2)]
  --Tuba
  ---TODO: Blasesound
  --Viola
  ,slow 2 $ midinote "[[62][60][58][[][60]]][58 57 55 54]" # s "Vibrato:26" #cut 1 # room 0.85 # sz 0.8 # orbit 1 #gain 0.7
  --Chello
  ,slow 2 $ midinote "[[74][][][[][75]]][74 72 75 74]" # s "gtr"
  --PIANO5,2
  ,slow 2 $ midinote "~ 67 69 74 ~ 67 69 74 ~ 67 69 74 ~ 67 69 74 ~ 67 69 74 ~ 67 69 74 ~ 67 69 74  ~ ~ 67 ~ " # s "superpiano"
  --Moog2
  ,midinote "[[[[50 ~ ~ 50]][~ 50]][55 57 60 58]]" # s "moog" # cut 1
]










---PART7---
d1 $ stack[
  --Drums7,6
  slow 2 $ sound "[bd hh bd hh][bd [hh ho] bd hh] [bd hh bd hh][bd [hh hh] bd hh]" #gain 1.2
  --6
  -- slow 2 $ stack [sound "[bd hh]*8" #gain 1.2,fastcat[sound "[rm rm rm rm rm]", sound "[rm rm rm rm ~]"] #gain 1.0]
  --Marimba2
  ,stack [slow 2 $ midinote "[~ [51 49] 51 51][~ [51 46] 51 51][~ [51 49] 51 51][~ 51 ~ 51]" # s "glasstap",slow 2 $ midinote "[~[~~~60]~~][]" # s "can" # speed (1 + (irand 10)*0.2)]
  --Tuba3
  ,sound "[~ cp ~ ~]" #pan 0.2
  --Posaune1
  ,sound "[][[][~ cp]]" #pan 0.8
  --Viola1
  ,slow 16 $ fastcat [midinote "[58][][][][][][][51][50][58][][][][][][]" # s "Vibrato:26",midinote "[58][][][][][][][51][50][58][][][][][][]" # s "Vibrato:26",midinote "[58][][][][][][][51][50][62][][][][][63][62]" # s "Vibrato:26",midinote "[][66][][][][][67][66][][69][][][][][][]" # s "Vibrato:26"] #cut 1 # room 0.85 # sz 0.8 # orbit 1 #gain 0.7
  --Chello2
  ,slow 4 $ midinote "[[62][[][][][63]]][62]" # s "Vibrato:26" #cut 2
  --Piano2,4
  ,slow 8 $ stack[midinote "[[[][[][][][67]][][]][]]  []  [[[][[][][][67]][][]][]]  []" #s "superpiano" ,midinote "[[[][[][][][62]][][]][]]  []  [[[][[][][][62]][][]][]]  []" #s "superpiano"] # room 0.5 # sz 0.83 # orbit 1 #gain 0.9
  --4
  -- ,slow 8 $ fastcat [midinote "~ 67 69 74 ~ 67 69 74 ~ 67 69 74 ~ 67 69 74 ~ 67 69 74 ~ 67 69 74 ~ 67 69 74  ~ ~ 67 ~ " # s "superpiano",midinote "~ 67 68 69 ~ 67 68 69 ~ 67 68 69 ~ 67 68 69 ~ 67 68 69 ~ 67 68 69 ~ 67 68 69  ~ ~ 67 ~ " # s "superpiano",midinote "~ 66 67 72 ~ 66 67 72 ~ 66 67 72 ~ 66 67 72 ~ 66 67 72 ~ 66 67 72 ~ 66 67 72  ~ ~ 67 ~ " # s "superpiano",midinote "~ 66 67 70 ~ 66 67 70 ~ 66 67 70 ~ 66 67 70 ~ 66 67 70 ~ 66 67 70 ~ 66 67 70  ~ ~ 66 ~ " # s "superpiano"] #gain 1.0 #pan 0.35
  --MOOG1,2
  -- ,slow 8 $ fastcat [midinote "[[55 55][54 55 ~ ~]]*2" # s "moog" # cut 1, midinote "[[50 50][49 50 ~ ~]]*2" # s "moog" # cut 1, midinote "[[48 48][47 48 ~ ~]]*2" # s "moog" # cut 1, midinote "[[58 57][56 57 ~ ~]]  [[57 ~][56 57 ~ ~]]" # s "moog" # cut 1] #gain 1.0
  --2
  ,midinote "[[[[50 ~ ~ 50]][~ 50]][55 57 60 58]]" # s "moog" # cut 1
]






----PART8----










hush
